actions/24/debug-step-out.svg

<svg xmlns="http://www.w3.org/2000/svg" width="24" height="24" viewBox="0 0 24 24">
 <defs>
  <style id="current-color-scheme" type="text/css">
   .ColorScheme-Text { color:#eeeeec; } .ColorScheme-Highlight { color:#367bf0; } .ColorScheme-NeutralText { color:#ffcc44; } .ColorScheme-PositiveText { color:#3db47e; } .ColorScheme-NegativeText { color:#dd4747; }
  </style>
 </defs>
 <path style="fill:currentColor" class="ColorScheme-Text" d="m3.0078 1c-2.2487 0-2 2-2 2v12h13.992v-10h-1.998v8h-9.9942v-8h7.9922v-4h-7.9922zm8.9922 0v4l3-2-3-2zm-5.5664 5c-1.0655 0-1.5137 0.3522-1.5137 1.2539 0 0-0.0244 0.5874-0.0312 0.7461-0.0462 0.3689-0.1754 0.6777-0.5782 0.6777h-0.3046v0.6446h0.3046c0.5886 0 0.6094 0.6442 0.6094 1.2007-0.005 0.174 0.0136 0.369 0.0176 0.477 0.0833 0.712 0.5388 1 1.4961 1v-0.592c-0.4495 0-0.6064-0.118-0.6699-0.408-0.0337-0.116-0.0372-0.514-0.0508-0.705 0-0.4155-0.124-1.0347-0.7227-1.2911 0.4731-0.2026 0.6441-0.6283 0.6973-1.0039 0.0239-0.1041 0.0186-0.2223 0.0254-0.3027 0-0.8663 0.0104-1.1055 0.7207-1.1055v-0.5918zm3.1426 0v0.5918c0.7098 0 0.7188 0.2392 0.7188 1.1055 0.007 0.0804 0.002 0.1986 0.025 0.3027 0.054 0.3756 0.225 0.8013 0.698 1.0039-0.599 0.2564-0.723 0.8756-0.723 1.2911-0.014 0.191-0.017 0.589-0.051 0.705-0.063 0.29-0.218 0.408-0.6678 0.408v0.592c0.9568 0 1.4108-0.288 1.4938-1 0.004-0.108 0.023-0.303 0.018-0.477 0-0.5565 0.021-1.2007 0.609-1.2007h0.305v-0.6446h-0.305c-0.402 0-0.532-0.3088-0.578-0.6777-0.007-0.1587-0.031-0.7461-0.031-0.7461 0-0.9017-0.446-1.2539-1.5118-1.2539z" transform="translate(4 4)"/>
</svg>

<?xml version="1.0" encoding="UTF-8" standalone="no"?>
<svg
   width="24"
   height="24"
   viewBox="0 0 24 24"
   version="1.1"
   id="svg7"
   sodipodi:docname="debug-step-out.svg"
   inkscape:version="1.1.2 (0a00cf5339, 2022-02-04)"
   xmlns:inkscape="http://www.inkscape.org/namespaces/inkscape"
   xmlns:sodipodi="http://sodipodi.sourceforge.net/DTD/sodipodi-0.dtd"
   xmlns="http://www.w3.org/2000/svg"
   xmlns:svg="http://www.w3.org/2000/svg">
  <sodipodi:namedview
     id="namedview9"
     pagecolor="#000000"
     bordercolor="#666666"
     borderopacity="1.0"
     inkscape:pageshadow="2"
     inkscape:pageopacity="0"
     inkscape:pagecheckerboard="0"
     showgrid="false"
     inkscape:zoom="28.416667"
     inkscape:cx="12"
     inkscape:cy="11.964809"
     inkscape:window-width="1837"
     inkscape:window-height="967"
     inkscape:window-x="0"
     inkscape:window-y="29"
     inkscape:window-maximized="1"
     inkscape:current-layer="svg7" />
  <defs
     id="defs3">
    <style
       id="current-color-scheme"
       type="text/css">
   .ColorScheme-Text { color:#eeeeec; } .ColorScheme-Highlight { color:#367bf0; } .ColorScheme-NeutralText { color:#ffcc44; } .ColorScheme-PositiveText { color:#3db47e; } .ColorScheme-NegativeText { color:#dd4747; }
  </style>
  </defs>
  <path
     style="fill:currentColor"
     class="ColorScheme-Text"
     d="m 3.0078,1 c -2.2487,0 -2,2 -2,2 v 12 h 13.992 V 5 h -1.998 v 8 H 3.0076 V 5 h 7.9922 V 1 H 3.0076 Z M 12.575273,1.3835156 12,1.7437361 v 2.4633356 l 0.639146,0.3668313 v 0 l 1.875163,-1.2501089 v 0 L 14.426638,2.6177589 Z M 6.4336,6 C 5.3681,6 4.9199,6.3522 4.9199,7.2539 4.9199,7.2539 4.8955,7.8413 4.8887,8 4.8425,8.3689 4.7133,8.6777 4.3105,8.6777 H 4.0059 v 0.6446 h 0.3046 c 0.5886,0 0.6094,0.6442 0.6094,1.2007 -0.005,0.174 0.0136,0.369 0.0176,0.477 0.0833,0.712 0.5388,1 1.4961,1 V 11.408 C 5.9841,11.408 5.8272,11.29 5.7637,11 5.73,10.884 5.7265,10.486 5.7129,10.295 5.7129,9.8795 5.5889,9.2603 4.9902,9.0039 5.4633,8.8013 5.6343,8.3756 5.6875,8 5.7114,7.8959 5.7061,7.7777 5.7129,7.6973 5.7129,6.831 5.7233,6.5918 6.4336,6.5918 Z m 3.1426,0 v 0.5918 c 0.7098,0 0.7188,0.2392 0.7188,1.1055 0.007,0.0804 0.002,0.1986 0.025,0.3027 0.054,0.3756 0.225,0.8013 0.698,1.0039 -0.599,0.2564 -0.723,0.8756 -0.723,1.2911 -0.014,0.191 -0.017,0.589 -0.051,0.705 -0.063,0.29 -0.218,0.408 -0.6678,0.408 V 12 c 0.9568,0 1.4108,-0.288 1.4938,-1 0.004,-0.108 0.023,-0.303 0.018,-0.477 0,-0.5565 0.021,-1.2007 0.609,-1.2007 h 0.305 V 8.6777 H 11.697 C 11.295,8.6777 11.165,8.3689 11.119,8 11.112,7.8413 11.088,7.2539 11.088,7.2539 11.088,6.3522 10.642,6 9.5762,6 Z"
     transform="translate(4,4)"
     id="path5"
     sodipodi:nodetypes="ccccccccccccccccccccccccccsccsccccccccccccccccccccccsccsccc" />
</svg>
